src/assets/img/logo.svg

<svg width="169" height="18" viewBox="0 0 169 18" fill="none" xmlns="http://www.w3.org/2000/svg">
<path fill-rule="evenodd" clip-rule="evenodd" d="M26.5766 17.4796H30.8793V12.1351H33.1465L35.8675 17.4796H40.3912L37.1065 11.2936L37.4051 11.1159C37.6471 10.9704 37.8702 10.7932 38.0688 10.5885C38.3601 10.3013 38.6266 9.98804 38.8651 9.65225C39.1642 9.21527 39.3938 8.73114 39.5453 8.21836C39.7371 7.60432 39.8324 6.96207 39.8274 6.31643C39.863 4.75595 39.2718 3.25067 38.1959 2.16287C37.1083 1.04491 35.7276 0.485925 34.0537 0.485925H26.5766V17.4796ZM35.5248 6.31042C35.5365 6.76671 35.364 7.20723 35.0492 7.52516C34.7204 7.85397 34.2772 8.0294 33.8215 8.0111H30.879V4.62247H33.8215C34.2761 4.60392 34.7188 4.77693 35.0492 5.10238C35.3643 5.41734 35.537 5.85599 35.5248 6.31042ZM45.7124 11.5306C45.6964 10.864 45.9282 10.2167 46.3594 9.72346C46.729 9.25462 47.281 8.98282 47.8637 8.98282C48.4465 8.98282 48.9985 9.25462 49.3681 9.72346C49.7993 10.2167 50.031 10.864 50.0151 11.5306C50.031 12.1972 49.7993 12.8445 49.3681 13.3378C48.9985 13.8066 48.4465 14.0784 47.8637 14.0784C47.281 14.0784 46.729 13.8066 46.3594 13.3378C45.9282 12.8445 45.6965 12.1972 45.7124 11.5306ZM53.9748 11.5306C53.9748 9.87932 53.3756 8.43551 52.1773 7.19921C49.7904 4.72639 45.9315 4.72639 43.5445 7.19921C42.3425 8.43563 41.7415 9.87944 41.7417 11.5306C41.7418 13.1818 42.3427 14.6256 43.5445 15.8621C45.9315 18.3349 49.7904 18.3349 52.1773 15.8621C53.3762 14.6256 53.9756 13.1818 53.9756 11.5306H53.9748ZM55.5571 11.5306C55.5571 13.1819 56.1581 14.6257 57.36 15.8621C58.4931 17.0691 60.0523 17.7397 61.6738 17.7172C62.2548 17.7185 62.8327 17.6287 63.388 17.4506C63.8543 17.3111 64.3036 17.1163 64.727 16.8699C65.0655 16.6611 65.3841 16.4192 65.6784 16.1474C65.8819 15.9709 66.0706 15.7766 66.2424 15.5667C66.3235 15.452 66.3862 15.3632 66.4304 15.3001L64.1734 12.7512L63.9411 13.0593C63.7173 13.3414 63.4407 13.5733 63.1281 13.7408C62.7566 13.9637 62.3349 14.0802 61.906 14.0785C61.2665 14.0954 60.6499 13.8307 60.2078 13.3497C59.7542 12.8638 59.5089 12.2077 59.5275 11.5306C59.5089 10.8536 59.7542 10.1975 60.2078 9.71161C60.6498 9.23063 61.2663 8.966 61.9057 8.98279C62.3464 8.9843 62.7778 9.11549 63.15 9.36122C63.4305 9.52179 63.6875 9.72331 63.9132 9.95965C64.0057 10.0753 64.0925 10.1959 64.1731 10.3209L66.4294 7.77304L66.2525 7.52414C66.0822 7.29445 65.8853 7.08751 65.6663 6.90799C65.368 6.65184 65.0539 6.41625 64.726 6.20274C64.3045 5.93894 63.8506 5.73562 63.3768 5.59829C61.2408 4.94844 58.9342 5.56165 57.3595 7.198C56.1578 8.43522 55.557 9.87943 55.5571 11.5306ZM75.9425 10.6891L80.0129 5.5816H75.5991L72.3146 9.71744V0.485925H68.4655V17.4796H72.3146V14.4459L73.3322 13.2371L75.9425 17.4796H80.1346L75.9425 10.6891ZM83.0662 0L80.5776 5.94902L82.9556 7.40665L86.2406 1.94373L83.0662 0ZM91.782 5.58161H87.9333V17.4796H91.782V11.5306C91.782 10.8196 91.9516 10.2587 92.2908 9.84784C92.6123 9.44542 93.0932 9.21839 93.5959 9.23169C94.0317 9.21844 94.4501 9.4099 94.7353 9.75306C95.0302 10.1006 95.1776 10.5746 95.1776 11.1751V17.4796H99.0269V10.4411C99.0269 8.92419 98.6471 7.69569 97.8876 6.75558C97.174 5.83739 96.091 5.31622 94.9565 5.34509C94.3484 5.34624 93.7509 5.50945 93.2207 5.81915C92.6677 6.1352 92.3119 6.38605 92.1535 6.5717C91.995 6.75736 91.8712 6.9132 91.782 7.03923V5.58161ZM103.441 0L100.952 5.94902L103.33 7.40665L106.615 1.94373L103.441 0ZM116.46 17.4797C118.148 17.4797 119.533 16.9819 120.613 15.9864C121.693 14.9909 122.233 13.8296 122.233 12.5023C122.238 11.9606 122.135 11.4238 121.929 10.9262C121.766 10.5096 121.536 10.1249 121.249 9.7885C120.991 9.50601 120.701 9.25728 120.386 9.04781C120.168 8.89438 119.941 8.75585 119.706 8.63309C119.577 8.57381 119.475 8.5284 119.402 8.49686L119.612 8.37835C119.799 8.26931 119.972 8.1359 120.126 7.98134C120.338 7.77709 120.536 7.55727 120.718 7.32357C120.943 7.01941 121.115 6.67642 121.227 6.31025C121.368 5.88118 121.439 5.43051 121.437 4.97699C121.437 3.7682 120.939 2.71744 119.944 1.8247C118.948 0.931963 117.636 0.485593 116.006 0.485593H108.872V17.4793H116.46V17.4797ZM113.175 13.8416V10.4411H116.117C116.573 10.4228 117.016 10.5982 117.345 10.927C117.979 11.6022 117.979 12.6812 117.345 13.3564C117.016 13.6852 116.573 13.8606 116.117 13.8423H113.175V13.8416ZM115.554 4.13585C115.948 4.1147 116.334 4.25754 116.626 4.53285C116.897 4.80985 117.042 5.19321 117.025 5.58763C117.042 5.98205 116.897 6.3654 116.626 6.6424C116.334 6.91772 115.948 7.06055 115.554 7.03941H113.175V4.13585H115.554ZM128.351 0.485925H124.502V17.4796H128.351V0.485925ZM134.578 11.5308C134.562 10.8641 134.794 10.2167 135.225 9.72348C135.595 9.25458 136.147 8.98273 136.73 8.98273C137.313 8.98273 137.865 9.25458 138.234 9.72348C138.665 10.2167 138.897 10.864 138.881 11.5306C138.897 12.1973 138.665 12.8447 138.234 13.338C137.865 13.8069 137.313 14.0787 136.73 14.0787C136.147 14.0787 135.595 13.8069 135.225 13.338C134.794 12.8447 134.562 12.1973 134.578 11.5306V11.5308ZM142.841 11.5308C142.841 9.87949 142.242 8.43568 141.043 7.19938C138.656 4.72656 134.797 4.72656 132.41 7.19938C131.208 8.43579 130.607 9.8796 130.607 11.5308C130.607 13.182 131.208 14.6258 132.41 15.8622C134.797 18.335 138.656 18.335 141.043 15.8622C142.241 14.6257 142.841 13.1818 142.841 11.5306V11.5308ZM144.423 11.5308C144.423 13.1821 145.024 14.6259 146.226 15.8622C147.359 17.0692 148.918 17.7397 150.539 17.7172C151.121 17.7186 151.699 17.6287 152.254 17.4506C152.72 17.3111 153.169 17.1163 153.593 16.8699C153.931 16.6612 154.25 16.4193 154.544 16.1474C154.748 15.9709 154.936 15.7766 155.108 15.5667C155.189 15.452 155.252 15.3632 155.296 15.3001L153.039 12.7512L152.807 13.0593C152.583 13.3414 152.307 13.5733 151.994 13.7408C151.622 13.9637 151.201 14.0802 150.772 14.0785C150.132 14.0953 149.516 13.8306 149.074 13.3497C148.62 12.8638 148.375 12.2077 148.394 11.5306C148.375 10.8536 148.62 10.1975 149.074 9.71161C149.516 9.23065 150.132 8.96601 150.772 8.9828C151.213 8.9843 151.644 9.11549 152.016 9.36122C152.297 9.52172 152.554 9.72325 152.779 9.95965C152.872 10.0753 152.959 10.1959 153.039 10.3209L155.296 7.77304L155.119 7.52414C154.948 7.29442 154.751 7.08747 154.532 6.90799C154.234 6.6518 153.92 6.41621 153.592 6.20274C153.171 5.93891 152.717 5.73559 152.243 5.5983C150.107 4.94836 147.8 5.56159 146.226 7.198C145.024 8.43523 144.423 9.87944 144.423 11.5306V11.5308ZM164.808 10.6893L168.879 5.58177H164.466L161.18 9.71744V0.485925H157.331V17.4796H161.18V14.4459L162.198 13.2371L164.808 17.4796H169L164.808 10.6893Z" fill="white"/>
<path fill-rule="evenodd" clip-rule="evenodd" d="M0 0H16.3548V17.0363H0V0Z" fill="#FF0000"/>
<path fill-rule="evenodd" clip-rule="evenodd" d="M10.4017 1.36279L3.40726 8.91231H7.76954L5.10965 15.6733L12.9476 6.55162H8.5853L10.4017 1.36279Z" fill="white"/>
</svg>

<svg xmlns="http://www.w3.org/2000/svg" width="169" height="18" fill="none"><path fill="#fff" fill-rule="evenodd" d="M26.58 17.48h4.3v-5.34h2.27l2.72 5.34h4.52l-3.28-6.19.3-.17c.24-.15.46-.33.66-.53a5.1 5.1 0 001.48-2.37c.19-.62.28-1.26.28-1.9a5.72 5.72 0 00-1.63-4.16A5.53 5.53 0 0034.05.5h-7.47v16.99zm8.94-11.17a1.64 1.64 0 01-1.7 1.7h-2.94V4.62h2.94a1.65 1.65 0 011.7 1.69zm10.2 5.22c-.02-.67.2-1.31.64-1.8.37-.48.92-.75 1.5-.75.59 0 1.14.27 1.5.74.44.5.67 1.14.66 1.81.01.67-.22 1.31-.65 1.8-.37.48-.92.75-1.5.75-.59 0-1.14-.27-1.51-.74a2.65 2.65 0 01-.65-1.8zm8.25 0c0-1.65-.6-3.1-1.8-4.33a5.95 5.95 0 00-8.63 0 6.02 6.02 0 00-1.8 4.33c0 1.65.6 3.1 1.8 4.33a5.95 5.95 0 008.64 0 6.03 6.03 0 001.8-4.33zm1.59 0c0 1.65.6 3.1 1.8 4.33a5.8 5.8 0 006.03 1.6c.46-.15.91-.34 1.34-.59a6.2 6.2 0 001.7-1.57l-2.26-2.55-.23.3c-.22.3-.5.52-.81.7-.37.21-.8.33-1.22.33a2.23 2.23 0 01-1.7-.73 2.56 2.56 0 01-.68-1.82c-.02-.68.22-1.33.68-1.82a2.23 2.23 0 011.7-.73c.44 0 .87.14 1.24.38.28.16.54.36.76.6.1.12.18.24.26.36l2.26-2.55-.18-.25a3.46 3.46 0 00-.58-.61c-.3-.26-.62-.5-.94-.7a5.93 5.93 0 00-7.37 1 6.02 6.02 0 00-1.8 4.32zm20.38-.84l4.07-5.1H75.6L72.3 9.71V.49h-3.84v16.99h3.84v-3.03l1.02-1.21 2.61 4.24h4.2l-4.2-6.8zM83.07 0l-2.5 5.95 2.39 1.46 3.28-5.47L83.07 0zm8.71 5.58h-3.85v11.9h3.85v-5.95c0-.71.17-1.27.51-1.68.32-.4.8-.63 1.3-.62.44-.01.86.18 1.15.52.29.35.44.82.44 1.43v6.3h3.85v-7.04c0-1.52-.38-2.74-1.14-3.68a3.6 3.6 0 00-4.67-.94c-.55.32-.9.57-1.07.75-.16.19-.28.34-.37.47V5.58zM103.44 0l-2.49 5.95 2.38 1.46 3.28-5.47L103.44 0zm13.02 17.48c1.69 0 3.07-.5 4.15-1.5a4.6 4.6 0 001.62-3.48c0-.54-.1-1.08-.3-1.57a4 4 0 00-1.54-1.88 6.04 6.04 0 00-.99-.55l.21-.12c.19-.11.36-.24.52-.4.2-.2.4-.42.59-.66a4.21 4.21 0 00.72-2.35c0-1.2-.5-2.25-1.5-3.15-1-.89-2.3-1.33-3.93-1.33h-7.14v16.99h7.59zm-3.28-3.64v-3.4h2.94c.45-.02.9.16 1.22.49.64.67.64 1.75 0 2.43-.32.33-.77.5-1.22.48h-2.95zm2.37-9.7c.4-.03.78.12 1.08.4.27.27.41.65.4 1.05.01.4-.13.78-.4 1.05-.3.28-.68.42-1.08.4h-2.38v-2.9h2.38zm12.8-3.65h-3.85v16.99h3.85v-17zm6.23 11.04c-.02-.67.21-1.31.64-1.8.38-.48.93-.75 1.51-.75s1.14.27 1.5.74c.44.5.67 1.14.65 1.81.02.67-.22 1.31-.65 1.8-.36.48-.92.75-1.5.75s-1.13-.27-1.5-.74a2.65 2.65 0 01-.65-1.8zm8.26 0c0-1.65-.6-3.1-1.8-4.33a5.95 5.95 0 00-8.63 0 6.02 6.02 0 00-1.8 4.33c0 1.65.6 3.1 1.8 4.33a5.95 5.95 0 008.63 0 6.03 6.03 0 001.8-4.33zm1.58 0c0 1.65.6 3.1 1.8 4.33a5.8 5.8 0 006.03 1.6 6.2 6.2 0 001.34-.59 6.2 6.2 0 001.52-1.3c.08-.12.14-.2.19-.27l-2.26-2.55-.23.3c-.23.3-.5.52-.82.7-.37.21-.79.33-1.22.33a2.23 2.23 0 01-1.7-.73 2.56 2.56 0 01-.68-1.82c-.01-.68.23-1.33.68-1.82a2.23 2.23 0 011.7-.73c.44 0 .87.14 1.25.38.28.16.53.36.76.6.1.12.18.24.26.36l2.26-2.55-.18-.25a3.5 3.5 0 00-.59-.61c-.3-.26-.61-.5-.94-.7a5.93 5.93 0 00-7.37 1 6.02 6.02 0 00-1.8 4.32zm20.39-.84l4.07-5.1h-4.41l-3.29 4.13V.49h-3.85v16.99h3.85v-3.03l1.02-1.21 2.6 4.24h4.2l-4.2-6.8z" clip-rule="evenodd"/><path fill="red" fill-rule="evenodd" d="M0 0h16.35v17.04H0V0z" clip-rule="evenodd"/><path fill="#fff" fill-rule="evenodd" d="M10.4 1.36l-7 7.55h4.37l-2.66 6.76 7.84-9.12H8.59l1.81-5.19z" clip-rule="evenodd"/></svg>
